X: 3096
T: Bear Dance, The
R: polka
M: 2/4
K: Eminor
|:BE E2|BE E>F|GG FG|A2 GA|
BE E2|BE E>F|GG FD|E2 E2:|
|:EG EG|FD D2|EG EG|A2 GA|
B2 A2|G2 F2|EG FD|E2 E2:|

